src/assets/contentHash/ContentHashIPFS.svg

<svg width="20" height="22" viewBox="0 0 20 22" fill="none" xmlns="http://www.w3.org/2000/svg">
<path d="M0 16.4407L9.55952 21.9209L19.119 16.4407V5.48023L9.55952 0L0 5.48023V16.4407Z" fill="#469EA2"/>
<path d="M8.5809 1.31064L1.63887 5.28804C1.65025 5.41208 1.65025 5.53688 1.63887 5.66092L8.56952 9.63832C8.85449 9.42913 9.19953 9.31624 9.55393 9.31624C9.90832 9.31624 10.2534 9.42913 10.5383 9.63832L17.469 5.66092C17.4576 5.53688 17.4576 5.41208 17.469 5.28804L10.5497 1.31064C10.2647 1.51983 9.9197 1.63272 9.56531 1.63272C9.21091 1.63272 8.86587 1.51983 8.5809 1.31064ZM18.1404 6.75697L11.1984 10.7796C11.236 11.1284 11.1616 11.4802 10.9859 11.7846C10.8101 12.089 10.5419 12.3305 10.2197 12.4745L10.2311 20.3841C10.3433 20.4332 10.4501 20.4938 10.5497 20.5649L17.4804 16.5875C17.4427 16.2386 17.5171 15.8868 17.6929 15.5824C17.8687 15.278 18.1368 15.0366 18.4591 14.8926V6.93776C18.3481 6.88611 18.2416 6.82565 18.1404 6.75697ZM0.978807 6.80216C0.879179 6.87322 0.772389 6.93381 0.660156 6.98296V14.9378C0.986342 15.0767 1.2582 15.3171 1.43473 15.6229C1.61127 15.9286 1.68292 16.283 1.63887 16.6327L8.56952 20.6101C8.66915 20.539 8.77594 20.4784 8.88817 20.4293V12.4745C8.56199 12.3356 8.29013 12.0951 8.1136 11.7894C7.93706 11.4837 7.86541 11.1292 7.90946 10.7796L0.978807 6.80216Z" fill="#6ACAD1"/>
<path d="M9.55952 1.18644L18.1062 6.0904V15.887L9.55952 20.791L1.01285 15.887V6.0791L9.55952 1.18644ZM9.55952 0.0225983L0 5.50282V16.4633L9.55952 21.9435L19.119 16.4633V5.50282L9.55952 0.0225983Z" fill="#469EA2"/>
<path d="M9.6278 12.8249H9.49124C9.25643 12.8255 9.02383 12.78 8.80678 12.691C8.58974 12.6021 8.39253 12.4714 8.2265 12.3066C8.06046 12.1417 7.92888 11.9459 7.8393 11.7304C7.74972 11.5149 7.70392 11.284 7.70452 11.0508V10.9153C7.70392 10.6821 7.74972 10.4512 7.8393 10.2357C7.92888 10.0202 8.06046 9.82436 8.2265 9.65951C8.39253 9.49466 8.58974 9.36401 8.80678 9.27507C9.02383 9.18613 9.25643 9.14065 9.49124 9.14124H9.6278C9.86261 9.14065 10.0952 9.18613 10.3123 9.27507C10.5293 9.36401 10.7265 9.49466 10.8925 9.65951C11.0586 9.82436 11.1902 10.0202 11.2797 10.2357C11.3693 10.4512 11.4151 10.6821 11.4145 10.9153V11.0508C11.4151 11.284 11.3693 11.5149 11.2797 11.7304C11.1902 11.9459 11.0586 12.1417 10.8925 12.3066C10.7265 12.4714 10.5293 12.6021 10.3123 12.691C10.0952 12.78 9.86261 12.8255 9.6278 12.8249ZM9.6278 20.113H9.49124C9.17381 20.112 8.86189 20.1954 8.58777 20.3543C8.31365 20.5132 8.08729 20.742 7.93213 21.017L9.55952 21.9435L11.1869 21.017C11.0318 20.742 10.8054 20.5132 10.5313 20.3543C10.2572 20.1954 9.94524 20.112 9.6278 20.113ZM19.1304 14.6328H19.0621C18.8273 14.6322 18.5947 14.6777 18.3777 14.7666C18.1606 14.8555 17.9634 14.9862 17.7974 15.151C17.6314 15.3159 17.4998 15.5117 17.4102 15.7272C17.3206 15.9427 17.2748 16.1736 17.2754 16.4068V16.5424C17.2738 16.8435 17.3523 17.1398 17.503 17.4011L19.1304 16.4633V14.6328ZM17.503 4.57627C17.3536 4.83816 17.2752 5.13405 17.2754 5.43503V5.57062C17.2748 5.80376 17.3206 6.03471 17.4102 6.25021C17.4998 6.46571 17.6314 6.66152 17.7974 6.82637C17.9634 6.99122 18.1606 7.12187 18.3777 7.21081C18.5947 7.29975 18.8273 7.34523 19.0621 7.34463H19.1304V5.50282L17.503 4.57627ZM9.55952 0.0225983L7.93213 0.949152C8.08655 1.22558 8.31244 1.45612 8.5865 1.61701C8.86055 1.77789 9.17287 1.86329 9.49124 1.86441H9.6278C9.94524 1.86536 10.2572 1.78205 10.5313 1.62312C10.8054 1.46419 11.0318 1.23541 11.1869 0.960451L9.55952 0.0225983ZM1.62739 4.56497L0 5.50282V7.34463H0.0682823C0.303086 7.34523 0.535694 7.29975 0.75274 7.21081C0.969786 7.12187 1.16699 6.99122 1.33302 6.82637C1.49906 6.66152 1.63064 6.46571 1.72022 6.25021C1.8098 6.03471 1.8556 5.80376 1.855 5.57062V5.43503C1.85115 5.131 1.77304 4.83244 1.62739 4.56497ZM0.0682823 14.6328H0V16.4633L1.62739 17.4011C1.77679 17.1392 1.85521 16.8434 1.855 16.5424V16.4068C1.8556 16.1736 1.8098 15.9427 1.72022 15.7272C1.63064 15.5117 1.49906 15.3159 1.33302 15.151C1.16699 14.9862 0.969786 14.8555 0.75274 14.7666C0.535694 14.6777 0.303086 14.6322 0.0682823 14.6328Z" fill="#469EA2"/>
<path d="M9.55952 21.9999V11.0282L0 5.54793V16.5197L9.55952 21.9999Z" fill="#083B54" fill-opacity="0.15"/>
<path d="M19.1303 16.4181V5.45763L9.5708 10.9379V21.9096L19.1303 16.4181Z" fill="#083B54" fill-opacity="0.05"/>
</svg>

<svg xmlns="http://www.w3.org/2000/svg" width="20" height="22" fill="none"><path fill="#469EA2" d="m0 16.44 9.56 5.48 9.559-5.48V5.48L9.559 0 0 5.48z"/><path fill="#6ACAD1" d="M8.58 1.31 1.64 5.289a2.04 2.04 0 0 1 0 .373l6.93 3.977a1.664 1.664 0 0 1 1.97 0l6.93-3.977a2.037 2.037 0 0 1 0-.373l-6.92-3.977a1.664 1.664 0 0 1-1.968 0m9.56 5.447-6.942 4.023c.038.348-.036.7-.212 1.005a1.672 1.672 0 0 1-.766.69l.011 7.91c.112.048.22.109.319.18l6.93-3.978c-.037-.348.037-.7.213-1.005.176-.304.444-.545.766-.69V6.939a2.281 2.281 0 0 1-.319-.181M.98 6.802c-.1.071-.207.132-.319.181v7.955c.326.139.598.38.775.685.176.306.248.66.204 1.01l6.93 3.977c.1-.071.207-.132.32-.18v-7.955a1.633 1.633 0 0 1-.775-.686 1.615 1.615 0 0 1-.205-1.01z"/><path fill="#469EA2" d="m9.56 1.186 8.546 4.904v9.797L9.56 20.791l-8.547-4.904V6.079zm0-1.163L0 5.503v10.96l9.56 5.48 9.559-5.48V5.503z"/><path fill="#469EA2" d="M9.628 12.825H9.49a1.792 1.792 0 0 1-1.264-.518 1.77 1.77 0 0 1-.522-1.256v-.136a1.758 1.758 0 0 1 .521-1.255 1.783 1.783 0 0 1 1.265-.519h.137a1.794 1.794 0 0 1 1.265.519 1.767 1.767 0 0 1 .521 1.255v.136a1.758 1.758 0 0 1-.521 1.256 1.783 1.783 0 0 1-1.265.518m0 7.288H9.49a1.79 1.79 0 0 0-1.559.904l1.628.927 1.627-.927a1.79 1.79 0 0 0-1.56-.904m9.502-5.48h-.068a1.794 1.794 0 0 0-1.265.518 1.77 1.77 0 0 0-.522 1.256v.135a1.7 1.7 0 0 0 .228.86l1.627-.939zM17.503 4.576a1.73 1.73 0 0 0-.228.859v.136a1.758 1.758 0 0 0 .522 1.255 1.782 1.782 0 0 0 1.265.519h.068V5.503zM9.56.023 7.932.949a1.783 1.783 0 0 0 1.56.915h.136A1.79 1.79 0 0 0 11.187.96zM1.627 4.565 0 5.503v1.842h.068a1.793 1.793 0 0 0 1.265-.519 1.769 1.769 0 0 0 .522-1.255v-.136a1.869 1.869 0 0 0-.228-.87M.068 14.633H0v1.83l1.627.938a1.73 1.73 0 0 0 .228-.859v-.135a1.758 1.758 0 0 0-.522-1.256 1.783 1.783 0 0 0-1.265-.518"/><path fill="#083B54" fill-opacity=".15" d="M9.56 22V11.028L0 5.548V16.52z"/><path fill="#083B54" fill-opacity=".05" d="M19.13 16.418V5.458l-9.56 5.48V21.91z"/></svg>
